X:318
T:Willy Reidy's #2* (polka)
B:CRE2.114 (gan ainm)
F:file ID: cre.2/318willy
N:Cf.JOL #245 (file ID jol/219willy_r2)
Q:120
L:1/8
M:2/4
R:polka
K:G
de/d/ Bd/B/|AB/A/ GB|AB/A/ GA|BA A2|
de/d/ Bd/B/|AB/A/ GB|AB/A/ GA|BG G2:|
de/f/ g2|(3f/g/f/e e/f/e/d/|Bd e>f|ed BB/A/|
Bd g2|fe e/f/e/d/|Bd ef|g2 gg/e/:|

%%%

